img/downloads/github-small-pack.svg

<svg width="32" height="31" viewBox="0 0 32 31" fill="none" xmlns="http://www.w3.org/2000/svg">
<path d="M16 0C7.16 0 0 7.04 0 15.7227C0 22.6707 4.584 28.5627 10.94 30.64C11.74 30.788 12.0333 30.3013 12.0333 29.884C12.0333 29.5107 12.02 28.5213 12.0133 27.2107C7.56267 28.1587 6.624 25.1013 6.624 25.1013C5.896 23.2867 4.844 22.8013 4.844 22.8013C3.39467 21.8267 4.956 21.8467 4.956 21.8467C6.56267 21.956 7.40667 23.4667 7.40667 23.4667C8.83333 25.8707 11.152 25.176 12.0667 24.7747C12.2107 23.7573 12.6227 23.0653 13.08 22.672C9.52667 22.2787 5.792 20.9267 5.792 14.9027C5.792 13.1867 6.412 11.784 7.43867 10.684C7.25867 10.2867 6.71867 8.688 7.57867 6.52267C7.57867 6.52267 8.91867 6.10133 11.9787 8.13467C13.2587 7.78533 14.6187 7.612 15.9787 7.604C17.3387 7.612 18.6987 7.78533 19.9787 8.13467C23.0187 6.10133 24.3587 6.52267 24.3587 6.52267C25.2187 8.688 24.6787 10.2867 24.5187 10.684C25.5387 11.784 26.1587 13.1867 26.1587 14.9027C26.1587 20.9427 22.4187 22.272 18.8587 22.6587C19.4187 23.1307 19.9387 24.0947 19.9387 25.568C19.9387 27.672 19.9187 29.3627 19.9187 29.8733C19.9187 30.2853 20.1987 30.7773 21.0187 30.62C27.42 28.556 32 22.66 32 15.7227C32 7.04 24.836 0 16 0Z" fill="black"/>
</svg>

<svg width="32" height="31" fill="none" xmlns="http://www.w3.org/2000/svg"><path d="M16 0C7.16 0 0 7.04 0 15.723c0 6.948 4.584 12.84 10.94 14.917.8.148 1.093-.339 1.093-.756 0-.373-.013-1.363-.02-2.673-4.45.948-5.389-2.11-5.389-2.11-.728-1.814-1.78-2.3-1.78-2.3-1.45-.974.112-.954.112-.954 1.607.109 2.45 1.62 2.45 1.62 1.427 2.404 3.746 1.709 4.66 1.308.145-1.018.557-1.71 1.014-2.103-3.553-.393-7.288-1.745-7.288-7.77 0-1.715.62-3.118 1.647-4.218-.18-.397-.72-1.996.14-4.161 0 0 1.34-.422 4.4 1.612a15.62 15.62 0 014-.531c1.36.008 2.72.181 4 .53 3.04-2.033 4.38-1.611 4.38-1.611.86 2.165.32 3.764.16 4.161 1.02 1.1 1.64 2.503 1.64 4.219 0 6.04-3.74 7.369-7.3 7.756.56.472 1.08 1.436 1.08 2.909 0 2.104-.02 3.795-.02 4.305 0 .412.28.904 1.1.747C27.42 28.556 32 22.66 32 15.723 32 7.04 24.836 0 16 0z" fill="#000"/></svg>
